X: 5524
T: Burning House, The
R: reel
M: 4/4
K: Adorian
B|eA A/A/A Bede|B/B/B eA BAAB|dG G/G/G ABAB|dgfa gedB|
eA A/A/A Bede|B/B/B eA BAAB|dG G/G/G ABAB|gedB A/A/A A:|
b|ae e/e/e gfed|eAAB c/c/c BA|BG G/G/G DGBd|
[1 egfa gedb|ae e/e/e gfed|eAAB c/c/c BA|BG G/G/G DGBd|gedB A/A/A A:|
[2 egfa gedg|eA A/A/A Bede|B/B/B eA BAAB|dG G/G/G ABAB|gedB A/A/A A||

